gama.ui.shared/icons_svg/light/overlays/small.continue.svg

<svg height="16" viewBox="-792.382 -3546.001 16 16" width="16" xmlns="http://www.w3.org/2000/svg"><path d="m-785.507-3542.9386v2.7256l-5.1955-3.649c-.4947-.344-1.1588-.209-1.4973.2965-.1172.1887-.1823.4045-.1823.6269v9.8763c0 .6133.4818 1.1123 1.0742 1.1123.2148 0 .4297-.0606.6054-.1887l5.1955-3.649v2.7254c0 .6133.48175 1.1123 1.0742 1.1123.2148 0 .4296-.0606.6054-.1887l6.9398-4.8743c.5273-.3706.664-1.112.30595-1.658-.07815-.1216-.18225-.2294-.30595-.317l-6.9398-4.874c-.4948-.344-1.1588-.209-1.4973.2965-.1172.1887-.1823.4045-.1823.6269zm.651 6.4316h-.7853l-5.4322 3.8155c-.0651.0472-.1498.0742-.2344.0742-.2344 0-.4232-.1957-.4232-.4382v-9.8831-.0067c0-.0877.0261-.1687.0717-.2427.1302-.1955.3906-.2495.5859-.1146l5.397 3.7956h.8205v-3.4316-.0067c0-.0877.02605-.1687.0716-.2427.1302-.1955.3906-.2495.5859-.1146l6.9398 4.8808c.0521.0338.09765.0808.1302.1348.1562.236.09765.5596-.1302.7214l-6.9398 4.8741c-.0651.0472-.1497.0742-.2343.0742-.2344 0-.4232-.1957-.4232-.4382z" fill="#fff"/></svg>

<?xml version="1.0" encoding="UTF-8" standalone="no"?>
<!DOCTYPE svg PUBLIC "-//W3C//DTD SVG 1.1//EN" "http://www.w3.org/Graphics/SVG/1.1/DTD/svg11.dtd">
<svg version="1.1" xmlns="http://www.w3.org/2000/svg" xmlns:xl="http://www.w3.org/1999/xlink" xmlns:dc="http://purl.org/dc/elements/1.1/" viewBox="-792.3821 -3546.0013 16.000008 16.000008" width="16.000008" height="16.000008">
  <defs/>
  <g id="SOURCES" stroke-dasharray="none" fill="none" stroke="none" fill-opacity="1" stroke-opacity="1">
    <title>SOURCES</title>
    <g id="SOURCES_Calque_2">
      <title>Calque 2</title>
      <g id="Group_9570">
        <g id="Graphic_9529"/>
        <g id="Graphic_9569">
          <path d="M -785.507 -3542.9386 L -785.507 -3540.213 L -790.7025 -3543.862 C -791.1972 -3544.206 -791.8613 -3544.071 -792.1998 -3543.5655 C -792.317 -3543.3768 -792.3821 -3543.161 -792.3821 -3542.9386 L -792.3821 -3542.9386 L -792.3821 -3533.0623 C -792.3821 -3532.449 -791.9003 -3531.95 -791.3079 -3531.95 C -791.0931 -3531.95 -790.8782 -3532.0106 -790.7025 -3532.1387 L -785.507 -3535.7877 L -785.507 -3533.0623 C -785.507 -3532.449 -785.02525 -3531.95 -784.4328 -3531.95 C -784.218 -3531.95 -784.0032 -3532.0106 -783.8274 -3532.1387 L -776.8876 -3537.013 C -776.3603 -3537.3836 -776.2236 -3538.125 -776.58165 -3538.671 C -776.6598 -3538.7926 -776.7639 -3538.9004 -776.8876 -3538.988 L -783.8274 -3543.862 C -784.3222 -3544.206 -784.9862 -3544.071 -785.3247 -3543.5655 C -785.4419 -3543.3768 -785.507 -3543.161 -785.507 -3542.9386 Z M -784.856 -3536.507 L -785.6413 -3536.507 L -791.0735 -3532.6915 C -791.1386 -3532.6443 -791.2233 -3532.6173 -791.3079 -3532.6173 C -791.5423 -3532.6173 -791.7311 -3532.813 -791.7311 -3533.0555 L -791.7311 -3542.9386 L -791.7311 -3542.9453 C -791.7311 -3543.033 -791.705 -3543.114 -791.6594 -3543.188 C -791.5292 -3543.3835 -791.2688 -3543.4375 -791.0735 -3543.3026 L -785.6765 -3539.507 L -784.856 -3539.507 L -784.856 -3542.9386 L -784.856 -3542.9453 C -784.856 -3543.033 -784.82995 -3543.114 -784.7844 -3543.188 C -784.6542 -3543.3835 -784.3938 -3543.4375 -784.1985 -3543.3026 L -777.2587 -3538.4218 C -777.2066 -3538.388 -777.16105 -3538.341 -777.1285 -3538.287 C -776.9723 -3538.051 -777.03085 -3537.7274 -777.2587 -3537.5656 L -784.1985 -3532.6915 C -784.2636 -3532.6443 -784.3482 -3532.6173 -784.4328 -3532.6173 C -784.6672 -3532.6173 -784.856 -3532.813 -784.856 -3533.0555 Z" fill="white"/>
        </g>
      </g>
    </g>
  </g>
</svg>
